!!!COM: Joseph (Maurice) Ravel
!!!OTL: [T287_Rav-w35p53-54h29m1-h30m1]
**kern	**dynam	**kern	**dynam	**kern	**dynam	**kern	**dynam	**kern	**dynam
*grp:A	*grp:A	*grp:A	*grp:A	*grp:B	*grp:B	*grp:B	*grp:B	*grp:B	*grp:B
*part4	*part4	*part3	*part3	*part2	*part2	*part2	*part2	*part1	*part1
*staff5	*staff5	*staff4	*staff4	*staff3	*staff3	*staff2	*staff2	*staff1	*staff1
*I"Violoncello	*I"Violoncello	*I"Viola	*I"Viola	*I"Harp	*I"Harp	*I"Harp	*I"Harp	*I"Bassoon	*I"Bassoon
*I'Vc.	*	*I'Vla.	*	*I'Hp.	*	*	*	*I'Bsn.	*
*clefF4	*	*clefC3	*	*clefF4	*	*clefG2	*	*clefC4	*
*k[]	*	*k[]	*	*k[]	*	*k[]	*	*k[]	*
*C:	*	*C:	*	*C:	*	*C:	*	*C:	*
*M6/8	*	*M6/8	*	*M2/4	*	*M2/4	*	*M2/4	*
!!LO:REH:t=29
=287	=287	=287	=287	=287	=287	=287	=287	=287	=287
!	!LO:DY:ed=brack	!	!LO:DY:ed=brack	!	!	!	!	!LO:TX:t=[[quarter-dot]=138]	!LO:DY:ed=brack
*Xtuplet	*	*Xtuplet	*	*	*	*	*	*	*
12CC' 12GG	pp	12E'	pp	2ryy	.	2ryy	.	8ryy	4ryy
12r	.	12r	.	.	.	.	.	.	.
.	.	.	.	.	.	.	.	4.ryy	.
12r	.	12r	.	.	.	.	.	.	.
12GG' 12E	.	12D#X'	.	.	.	.	.	.	.
12r	.	12r	.	.	.	.	.	.	.
12r	.	12r	.	.	.	.	.	.	.
=288	=288	=288	=288	=288	=288	=288	=288	=288	=288
12CC' 12GG	.	12E'	.	2ryy	.	2ryy	.	4.ryy	.
12r	.	12r	.	.	.	.	.	.	.
12r	.	12r	.	.	.	.	.	.	.
12GG' 12E	.	12D#X'	.	.	.	.	.	.	.
12r	.	12r	.	.	.	.	.	.	.
.	.	.	.	.	.	.	.	8ryy	.
12r	.	12r	.	.	.	.	.	.	.
=289	=289	=289	=289	=289	=289	=289	=289	=289	=289
12CC' 12GG	.	12E'	.	2ryy	.	2ryy	.	4ryy	.
12r	.	12r	.	.	.	.	.	.	.
12r	.	12r	.	.	.	.	.	.	.
12GG' 12E	.	12D#X'	.	.	.	.	.	4ryy	.
12r	.	12r	.	.	.	.	.	.	.
12r	.	12r	.	.	.	.	.	.	.
=290	=290	=290	=290	=290	=290	=290	=290	=290	=290
12CC' 12GG	.	12E'	.	2ryy	.	2ryy	.	8ryy	.
12r	.	12r	.	.	.	.	.	.	.
.	.	.	.	.	.	.	.	4.ryy	.
12r	.	12r	.	.	.	.	.	.	.
12GG' 12E	.	12D#X'	.	.	.	.	.	.	.
12r	.	12r	.	.	.	.	.	.	.
12r	.	12r	.	.	.	.	.	.	.
!!linebreak:original
=291	=291	=291	=291	=291	=291	=291	=291	=291	=291
12CC' 12GG	.	12E'	.	2ryy	.	2ryy	.	4.ryy	.
12r	.	12r	.	.	.	.	.	.	.
12r	.	12r	.	.	.	.	.	.	.
12GG' 12E	.	12D#X'	.	.	.	.	.	.	.
12r	.	12r	.	.	.	.	.	.	.
.	.	.	.	.	.	.	.	8ryy	.
12r	.	12r	.	.	.	.	.	.	.
=292	=292	=292	=292	=292	=292	=292	=292	=292	=292
12CC' 12GG	.	12E'	.	2ryy	.	2ryy	.	4ryy	.
12r	.	12r	.	.	.	.	.	.	.
12r	.	12r	.	.	.	.	.	.	.
12GG' 12E	.	12D#X'	.	.	.	.	.	4ryy	.
12r	.	12r	.	.	.	.	.	.	.
12r	.	12r	.	.	.	.	.	.	.
=293	=293	=293	=293	=293	=293	=293	=293	=293	=293
12CC' 12GG	.	12E'	.	2ryy	.	2ryy	.	8ryy	.
12r	.	12r	.	.	.	.	.	.	.
.	.	.	.	.	.	.	.	4.ryy	.
12r	.	12r	.	.	.	.	.	.	.
12GG' 12E	.	12D#X'	.	.	.	.	.	.	.
12r	.	12r	.	.	.	.	.	.	.
12r	.	12r	.	.	.	.	.	.	.
=294	=294	=294	=294	=294	=294	=294	=294	=294	=294
12CC' 12GG	.	12E'	.	2ryy	.	2ryy	.	4.ryy	.
12r	.	12r	.	.	.	.	.	.	.
12r	.	12r	.	.	.	.	.	.	.
12GG' 12E	.	12D#X'	.	.	.	.	.	.	.
12r	.	12r	.	.	.	.	.	.	.
.	.	.	.	.	.	.	.	8ryy	.
12r	.	12r	.	.	.	.	.	.	.
!!pagebreak:original
=295	=295	=295	=295	=295	=295	=295	=295	=295	=295
12CC' 12GG	.	12E'	.	2ryy	.	2ryy	.	2ryy	.
12r	.	12r	.	.	.	.	.	.	.
12r	.	12r	.	.	.	.	.	.	.
12GG' 12E	.	12D#X'	.	.	.	.	.	.	.
12r	.	12r	.	.	.	.	.	.	.
12r	.	12r	.	.	.	.	.	.	.
=296	=296	=296	=296	=296	=296	=296	=296	=296	=296
12CC' 12GG	.	12E'	.	2ryy	.	2ryy	.	8ryy	.
12r	.	12r	.	.	.	.	.	.	.
.	.	.	.	.	.	.	.	4.ryy	.
12r	.	12r	.	.	.	.	.	.	.
12GG' 12E	.	12D#X'	.	.	.	.	.	.	.
12r	.	12r	.	.	.	.	.	.	.
12r	.	12r	.	.	.	.	.	.	.
=297	=297	=297	=297	=297	=297	=297	=297	=297	=297
12CC' 12GG	.	12E'	.	2ryy	.	2ryy	.	4.ryy	.
12r	.	12r	.	.	.	.	.	.	.
12r	.	12r	.	.	.	.	.	.	.
12GG' 12E	.	12D#X'	.	.	.	.	.	.	.
12r	.	12r	.	.	.	.	.	.	.
.	.	.	.	.	.	.	.	8ryy	.
12r	.	12r	.	.	.	.	.	.	.
=298	=298	=298	=298	=298	=298	=298	=298	=298	=298
12CC' 12GG	.	12E'	.	2ryy	.	2ryy	.	2ryy	.
12r	.	12r	.	.	.	.	.	.	.
12r	.	12r	.	.	.	.	.	.	.
12GG' 12E	.	12D#X'	.	.	.	.	.	.	.
12r	.	12r	.	.	.	.	.	.	.
12r	.	12r	.	.	.	.	.	.	.
!!linebreak:original
=299	=299	=299	=299	=299	=299	=299	=299	=299	=299
12CC' 12GG	.	12E'	.	2ryy	.	2ryy	.	8ryy	.
12r	.	12r	.	.	.	.	.	.	.
.	.	.	.	.	.	.	.	4.ryy	.
12r	.	12r	.	.	.	.	.	.	.
12GG' 12E	.	12D#X'	.	.	.	.	.	.	.
12r	.	12r	.	.	.	.	.	.	.
12r	.	12r	.	.	.	.	.	.	.
=300	=300	=300	=300	=300	=300	=300	=300	=300	=300
12CC' 12GG	.	12E'	.	2ryy	.	2ryy	.	4.ryy	.
12r	.	12r	.	.	.	.	.	.	.
12r	.	12r	.	.	.	.	.	.	.
12GG' 12E	.	12D#X'	.	.	.	.	.	.	.
12r	.	12r	.	.	.	.	.	.	.
.	.	.	.	.	.	.	.	8ryy	.
12r	.	12r	.	.	.	.	.	.	.
=301	=301	=301	=301	=301	=301	=301	=301	=301	=301
12CC' 12GG	.	12E'	.	2ryy	.	2ryy	.	4ryy	.
12r	.	12r	.	.	.	.	.	.	.
12r	.	12r	.	.	.	.	.	.	.
12GG' 12E	.	12D#X'	.	.	.	.	.	4ryy	.
12r	.	12r	.	.	.	.	.	.	.
12r	.	12r	.	.	.	.	.	.	.
*	*	*	*	*clefG2	*	*	*	*	*
!!LO:REH:t=30
=302	=302	=302	=302	=302	=302	=302	=302	=302	=302
12CC' 12GG	.	12E'	pp	32ryy	4ryy	2ryyyy	.	8ryy	.
.	.	.	.	32ryy	.	.	.	.	.
.	.	.	.	32ryy	.	.	.	.	.
12r	.	12r	.	.	.	.	.	.	.
.	.	.	.	32ryy	.	.	.	.	.
.	.	.	.	32ryy	.	.	.	4.ryy	.
!	!	!	!	!LO:TX:t=P:problem:there should be a line extending from the F# to the end of the measure, indicating duration and range of the Harp gliss.	!	!	!	!	!
.	.	.	.	32ryy	.	.	.	.	.
12r	.	12r	.	.	.	.	.	.	.
.	.	.	.	16ryyyy	.	.	.	.	.
12GG' 12E	.	12D#X'	.	4ryyyy	.	.	.	.	.
12r	.	12r	.	.	.	.	.	.	.
12r	.	12r	.	.	.	.	.	.	.
=	=	=	=	=	=	=	=	=	=
*-	*-	*-	*-	*-	*-	*-	*-	*-	*-
!!!system-decoration: [(s1)][({(s2,s3)})][(s4,s5)]
!!!RDF**kern: > = above
!!!RDF**kern: < = below
!!!RDF**kern: N = cue sized
!!!EED: Daniel Wright
!!!EEV: 2021/07/13
!!!EED2: Gabriella Vici
!!!EEV2: 2022/01/27
